X: 12511
T: Farewell To Gurteen
R: jig
M: 6/8
K: Dmajor
F2D F2A|dfd ecA|~F3 DFD|~G3 BAG|
FED F2A|d2f ecA|faf gec|Adc d3:|
dcd ~f3|dad ~a3|daf d2f|e=ce ~g3|
dAd ~f3|d2A AFD|~A3 GFE|edc d3:|

